!!!COM: Music21
!!!OTL: Marcha procesional de A Guarda
!!!OMV: pezas_marchas_marcha-procesional-de-a-guarda_marcha-procesional-de-a-guarda-partitura.musicxml
**kern
*I"Bagpipes
*I'Bag
*clefG^2
*k[]
*M3/4
=1
!LO:TX:a:t=Andante
*MM100
!LO:TX:a:t=[quarter]=100
2r
8cccL
8bbJ
=||
4gg
8ggL
8ffJ
8aaL
8ggJ
=
4ee
4cc
8eeL
8ggJ
=
8ffL
8ddJ
8bL
8ddJ
8ffL
8aaJ
=
8ggL
8eeJ
4cc
8cccL
8bbJ
=
4gg
8ggL
8eeJ
8ffL
8aaJ
=
8ggL
8eeJ
4cc
8eeL
8ggJ
=
8ffL
8ddJ
8bL
8ddJ
8ffL
8eeJ
!!linebreak:original
=
2cc
8cccL
8bbJ
=||
4gg
8ggL
8ffJ
8aaL
8ggJ
=
4ee
4cc
8eeL
8ggJ
=
8ffL
8ddJ
8bL
8ddJ
8ffL
8aaJ
=
8ggL
8eeJ
4cc
8cccL
8bbJ
=
4gg
8ggL
8eeJ
8ffL
8aaJ
=
8ggL
8eeJ
4cc
8eeL
8ggJ
=
8ffL
8ddJ
8bL
8ddJ
8ffL
8eeJ
=
2.cc
!!linebreak:original
=||
4ee
8eeL
8ccJ
8eeL
8ggJ
=
8ffL
8ddJ
2b
=
8ddL
8bJ
8ddL
8bJ
8ddL
8ffJ
=
8eeL
8ddJ
2cc
=
4ee
8eeL
8ccJ
8eeL
8ggJ
=
8ffL
8ddJ
2b
=
8aaL
8ffJ
8ggL
8eeJ
8ffL
8ddJ
=
4cc
2cc
=||
4ee
8eeL
8ccJ
8eeL
8ggJ
=
8ffL
8ddJ
2b
!!linebreak:original
=
8ddL
8bJ
8ddL
8bJ
8ddL
8ffJ
=
8eeL
8ddJ
2cc
=
4ee
8eeL
8ccJ
8eeL
8ggJ
=
8ffL
8ddJ
2b
=
8aaL
8ffJ
8ggL
8eeJ
8ffL
8ddJ
!!linebreak:original
=
4cc
4cc
8cccL
8bbJ
=
*-
